actions/symbolic/view-restore-symbolic.svg

<?xml version="1.0" encoding="UTF-8" standalone="no"?>
<svg
   xmlns:dc="http://purl.org/dc/elements/1.1/"
   xmlns:cc="http://creativecommons.org/ns#"
   xmlns:rdf="http://www.w3.org/1999/02/22-rdf-syntax-ns#"
   xmlns:svg="http://www.w3.org/2000/svg"
   xmlns="http://www.w3.org/2000/svg"
   xmlns:sodipodi="http://sodipodi.sourceforge.net/DTD/sodipodi-0.dtd"
   xmlns:inkscape="http://www.inkscape.org/namespaces/inkscape"
   viewBox="0 0 16 16"
   id="svg3309"
   version="1.1"
   inkscape:version="0.91 r13725"
   sodipodi:docname="view-restore-symbolic.svg">
  <metadata
     id="metadata3317">
    <rdf:RDF>
      <cc:Work
         rdf:about="">
        <dc:format>image/svg+xml</dc:format>
        <dc:type
           rdf:resource="http://purl.org/dc/dcmitype/StillImage" />
      </cc:Work>
    </rdf:RDF>
  </metadata>
  <sodipodi:namedview
     pagecolor="#ffffff"
     bordercolor="#666666"
     borderopacity="1"
     objecttolerance="10"
     gridtolerance="10"
     guidetolerance="10"
     inkscape:pageopacity="0"
     inkscape:pageshadow="2"
     inkscape:window-width="640"
     inkscape:window-height="480"
     id="namedview3315"
     showgrid="false"
     inkscape:zoom="41.1875"
     inkscape:cx="3.6783005"
     inkscape:cy="8"
     inkscape:current-layer="svg3309" />
  <defs
     id="defs3051">
    <style
       type="text/css"
       id="current-color-scheme">
      .ColorScheme-Text {
        color:#bebebe;
      }
      </style>
  </defs>
  <path
     style="color:#bebebe;fill:currentColor;fill-opacity:1;stroke:none"
     class="ColorScheme-Text"
     d="m 4.5714286,2.8572859 0,2.5714286 -2.5714286,0 0,1.7142857 3.4285714,0 c 0.8571429,0 0.8571429,-0.8571429 0.8571429,-0.8571429 l 0,-3.4285714 -1.7142857,0 z m 5.1428571,0 0,3.4285714 c 0,0 0,0.8571429 0.8571433,0.8571429 l 3.428571,0 0,-1.7142857 -2.571429,0 0,-2.5714286 -1.7142853,0 z m -7.7142857,6 0,1.7142851 2.5714286,0 0,2.571429 1.7142857,0 0,-3.428571 c 0,0 0,-0.8571431 -0.8571429,-0.8571431 L 2,8.8572859 Z m 8.571429,0 c 0,0 -0.8571433,0 -0.8571433,0.8571431 l 0,3.428571 1.7142853,0 0,-2.571429 2.571429,0 0,-1.7142851 -3.428571,0 z"
     id="path3313"
     inkscape:connector-curvature="0" />
</svg>

<svg xmlns="http://www.w3.org/2000/svg" viewBox="0 0 16 16">
  <path fill="#bebebe" d="M4.571 2.857V5.43H2v1.714h3.429c.857 0 .857-.857.857-.857v-3.43H4.57zm5.143 0v3.429s0 .857.857.857H14V5.429h-2.571V2.857zM2 8.857v1.715h2.571v2.571h1.715V9.714s0-.857-.857-.857zm8.571 0s-.857 0-.857.857v3.429h1.715v-2.571H14V8.857z"/>
</svg>
